X:255
T:Witty Shepherd - Roe
%%VWML:SBG-1-2-649-0
F:http://www.vwml.org/record/SBG/1/2/649
Z:Original Sibelius transcriptions by M. & S. Graebe
L:1/8
M:6/8
I:linebreak $
K:D
V:1 treble nm="P1"
V:2 treble 
V:1
 A | A BA d2 F | F2 G A2 z | B cB A2 F | EF G A2 A | A BA d2 e | c2 B A2 z A |$ B cd e2 A | %8
 d2 c d2 |"^chorus" D DD DF | AB A d3 | E F G A3 | D D D D3 | %13
V:2
 x | x6 | x6 | x6 | x6 | x6 | x7 |$ x6 | x3 A2 | x5 | x6 | x6 | x6 | %13
T:Witty Shepherd - Ritson
F:http://www.vwml.org/record/SBG/1/2/699
Z:Original Sibelius transcriptions by M. & S. Graebe
M:6/4
I:linebreak $
K:F
V:1 treble nm="P1"
V:1
 A | A c A (A c) A | A c A c2 | A d d d2 c | A3/2 B/A/G/ F D A |$ A c A (c d) e | f e d c2 (d/e/) | %7
 f e d c A c | F G A d3 |$ A3/2 B/A/G/ F D2 | G3/2 A/G/F/ E C2 | F D D F G A | d2 A F D2 | %13

